web/logos/nucleus.svg

<svg width="256" height="256" viewBox="0 0 256 256" fill="none" xmlns="http://www.w3.org/2000/svg">
<circle cx="127.999" cy="128" r="33" fill="white"/>
<path d="M232 128C232 136.837 224.837 144 216 144C207.163 144 200 136.837 200 128C200 119.163 207.163 112 216 112C224.837 112 232 119.163 232 128Z" fill="white"/>
<path d="M201.539 201.539C195.291 207.787 185.16 207.787 178.912 201.539C172.663 195.291 172.663 185.16 178.912 178.912C185.16 172.663 195.291 172.663 201.539 178.912C207.787 185.16 207.787 195.291 201.539 201.539Z" fill="white"/>
<path d="M128 232C119.163 232 112 224.837 112 216C112 207.163 119.163 200 128 200C136.837 200 144 207.163 144 216C144 224.837 136.837 232 128 232Z" fill="white"/>
<path d="M54.4609 201.539C48.2125 195.291 48.2125 185.16 54.4609 178.912C60.7093 172.663 70.8399 172.663 77.0883 178.912C83.3367 185.16 83.3367 195.291 77.0883 201.539C70.8399 207.787 60.7093 207.787 54.4609 201.539Z" fill="white"/>
<path d="M56 128C56 136.837 48.8366 144 40 144C31.1634 144 24 136.837 24 128C24 119.163 31.1634 112 40 112C48.8366 112 56 119.163 56 128Z" fill="white"/>
<path d="M77.0883 77.0883C70.8399 83.3367 60.7093 83.3367 54.4609 77.0883C48.2125 70.8399 48.2125 60.7093 54.4609 54.4609C60.7093 48.2125 70.8399 48.2125 77.0883 54.4609C83.3367 60.7093 83.3367 70.8399 77.0883 77.0883Z" fill="white"/>
<path d="M128 56C119.163 56 112 48.8366 112 40C112 31.1634 119.163 24 128 24C136.837 24 144 31.1634 144 40C144 48.8366 136.837 56 128 56Z" fill="white"/>
<path d="M178.912 77.0883C172.663 70.8399 172.663 60.7093 178.912 54.4609C185.16 48.2125 195.291 48.2125 201.539 54.4609C207.787 60.7093 207.787 70.8399 201.539 77.0883C195.291 83.3367 185.16 83.3367 178.912 77.0883Z" fill="white"/>
<path fill-rule="evenodd" clip-rule="evenodd" d="M216.842 104.014C214.757 96.2734 211.688 88.936 207.776 82.1452C207.587 82.3477 207.393 82.5477 207.196 82.7452C205.43 84.5109 203.458 85.944 201.357 87.0444C204.515 92.6888 207.04 98.735 208.837 105.087C211.099 104.381 213.505 104 216 104C216.282 104 216.563 104.005 216.842 104.014ZM210.649 143.083C211.537 138.19 212 133.149 212 128C212 122.851 211.537 117.81 210.649 112.917C212.322 112.323 214.124 112 216 112C216.903 112 217.789 112.075 218.652 112.219C219.538 117.346 220 122.619 220 128C220 133.381 219.538 138.654 218.652 143.781C217.789 143.925 216.903 144 216 144C214.124 144 212.322 143.677 210.649 143.083ZM197.101 80.2267C191.334 71.9 184.1 64.6662 175.773 58.8987C176.537 57.2937 177.583 55.7895 178.912 54.4609C179.549 53.8241 180.226 53.2521 180.935 52.7451C189.594 58.8472 197.153 66.4059 203.255 75.065C202.748 75.7743 202.176 76.4515 201.539 77.0883C200.21 78.4169 198.706 79.4631 197.101 80.2267ZM173.855 48.2242C173.652 48.4133 173.452 48.6066 173.255 48.804C171.489 50.5698 170.056 52.5422 168.956 54.6435C163.311 51.4854 157.265 48.96 150.913 47.163C151.619 44.9009 152 42.4949 152 40C152 39.7181 151.995 39.4374 151.986 39.1579C159.727 41.2427 167.064 44.3124 173.855 48.2242ZM112.219 37.3483C117.346 36.4619 122.619 36 128 36C133.381 36 138.654 36.4619 143.781 37.3483C143.925 38.2108 144 39.0967 144 40C144 41.8765 143.677 43.6775 143.083 45.3505C138.19 44.4633 133.149 44 128 44C122.851 44 117.81 44.4633 112.917 45.3505C112.323 43.6775 112 41.8765 112 40C112 39.0967 112.075 38.2108 112.219 37.3483ZM104.014 39.1579C96.2734 41.2427 88.936 44.3124 82.1452 48.2242C82.3477 48.4133 82.5477 48.6066 82.7452 48.804C84.5109 50.5698 85.944 52.5422 87.0444 54.6435C92.6888 51.4854 98.735 48.96 105.087 47.163C104.381 44.9009 104 42.4949 104 40C104 39.7181 104.005 39.4374 104.014 39.1579ZM80.2267 58.8987C71.9 64.6662 64.6662 71.9 58.8987 80.2267C57.2937 79.4631 55.7895 78.4169 54.4609 77.0883C53.8241 76.4515 53.2521 75.7743 52.7451 75.065C58.8472 66.4059 66.4059 58.8472 75.065 52.7451C75.7743 53.2521 76.4515 53.8241 77.0883 54.4609C78.4169 55.7895 79.4631 57.2937 80.2267 58.8987ZM48.2242 82.1452C48.4133 82.3477 48.6066 82.5477 48.804 82.7452C50.5698 84.5109 52.5422 85.944 54.6435 87.0444C51.4854 92.6888 48.96 98.735 47.163 105.087C44.9009 104.381 42.4949 104 40 104C39.7181 104 39.4374 104.005 39.1579 104.014C41.2427 96.2734 44.3124 88.936 48.2242 82.1452ZM37.3483 143.781C36.4619 138.654 36 133.381 36 128C36 122.619 36.4619 117.346 37.3483 112.219C38.2108 112.075 39.0967 112 40 112C41.8765 112 43.6775 112.323 45.3505 112.917C44.4633 117.81 44 122.851 44 128C44 133.149 44.4633 138.19 45.3505 143.083C43.6775 143.677 41.8765 144 40 144C39.0967 144 38.2108 143.925 37.3483 143.781ZM216 152C216.282 152 216.563 151.995 216.842 151.986C214.757 159.727 211.688 167.064 207.776 173.855C207.587 173.652 207.393 173.452 207.196 173.255C205.43 171.489 203.458 170.056 201.357 168.956C204.515 163.311 207.04 157.265 208.837 150.913C211.099 151.619 213.505 152 216 152ZM175.773 197.101C184.1 191.334 191.334 184.1 197.101 175.773C198.706 176.537 200.21 177.583 201.539 178.912C202.176 179.549 202.748 180.226 203.255 180.935C197.153 189.594 189.594 197.153 180.935 203.255C180.226 202.748 179.549 202.176 178.912 201.539C177.583 200.21 176.537 198.706 175.773 197.101ZM168.956 201.357C163.311 204.515 157.265 207.04 150.913 208.837C151.619 211.099 152 213.505 152 216C152 216.282 151.995 216.563 151.986 216.842C159.727 214.757 167.064 211.688 173.855 207.776C173.652 207.587 173.452 207.393 173.255 207.196C171.489 205.43 170.056 203.458 168.956 201.357ZM143.781 218.652C138.654 219.538 133.381 220 128 220C122.619 220 117.346 219.538 112.219 218.652C112.075 217.789 112 216.903 112 216C112 214.124 112.323 212.322 112.917 210.649C117.81 211.537 122.851 212 128 212C133.149 212 138.19 211.537 143.083 210.649C143.677 212.322 144 214.124 144 216C144 216.903 143.925 217.789 143.781 218.652ZM105.087 208.837C104.381 211.099 104 213.505 104 216C104 216.282 104.005 216.563 104.014 216.842C96.2734 214.757 88.936 211.688 82.1452 207.776C82.3477 207.587 82.5477 207.393 82.7452 207.196C84.5109 205.43 85.944 203.458 87.0444 201.357C92.6888 204.515 98.735 207.04 105.087 208.837ZM58.8987 175.773C64.6663 184.1 71.9 191.334 80.2267 197.101C79.4631 198.706 78.4169 200.21 77.0883 201.539C76.4515 202.176 75.7743 202.748 75.065 203.255C66.4059 197.153 58.8472 189.594 52.7451 180.935C53.2521 180.226 53.8241 179.549 54.4609 178.912C55.7895 177.583 57.2937 176.537 58.8987 175.773ZM54.6435 168.956C51.4854 163.311 48.96 157.265 47.163 150.913C44.9009 151.619 42.4949 152 40 152C39.7181 152 39.4374 151.995 39.1579 151.986C41.2427 159.727 44.3124 167.064 48.2242 173.855C48.4133 173.652 48.6066 173.452 48.804 173.255C50.5698 171.489 52.5422 170.056 54.6435 168.956Z" fill="white"/>
</svg>

<svg width="256" height="256" fill="none" xmlns="http://www.w3.org/2000/svg"><circle cx="127.999" cy="128" r="33" fill="#fff"/><path d="M232 128c0 8.837-7.163 16-16 16s-16-7.163-16-16 7.163-16 16-16 16 7.163 16 16ZM201.539 201.539c-6.248 6.248-16.379 6.248-22.627 0-6.249-6.248-6.249-16.379 0-22.627 6.248-6.249 16.379-6.249 22.627 0 6.248 6.248 6.248 16.379 0 22.627ZM128 232c-8.837 0-16-7.163-16-16s7.163-16 16-16 16 7.163 16 16-7.163 16-16 16ZM54.46 201.539c-6.248-6.248-6.248-16.379 0-22.627 6.25-6.249 16.38-6.249 22.628 0 6.249 6.248 6.249 16.379 0 22.627-6.248 6.248-16.379 6.248-22.627 0ZM56 128c0 8.837-7.163 16-16 16s-16-7.163-16-16 7.163-16 16-16 16 7.163 16 16ZM77.088 77.088c-6.248 6.249-16.379 6.249-22.627 0-6.248-6.248-6.248-16.379 0-22.627 6.248-6.248 16.379-6.248 22.627 0 6.249 6.248 6.249 16.379 0 22.627ZM128 56c-8.837 0-16-7.163-16-16s7.163-16 16-16 16 7.163 16 16-7.163 16-16 16ZM178.912 77.088c-6.249-6.248-6.249-16.379 0-22.627 6.248-6.248 16.379-6.248 22.627 0 6.248 6.248 6.248 16.379 0 22.627-6.248 6.249-16.379 6.249-22.627 0Z" fill="#fff"/><path fill-rule="evenodd" clip-rule="evenodd" d="M216.842 104.014a91.445 91.445 0 0 0-9.066-21.869 23.999 23.999 0 0 1-6.419 4.9 83.493 83.493 0 0 1 7.48 18.042 24.005 24.005 0 0 1 8.005-1.073Zm-6.193 39.069A84.415 84.415 0 0 0 212 128c0-5.149-.463-10.19-1.351-15.083a16.105 16.105 0 0 1 8.003-.698A92.62 92.62 0 0 1 220 128a92.62 92.62 0 0 1-1.348 15.781 16.105 16.105 0 0 1-8.003-.698Zm-13.548-62.856a84.455 84.455 0 0 0-21.328-21.328 16.14 16.14 0 0 1 5.162-6.154 92.522 92.522 0 0 1 22.32 22.32 16.092 16.092 0 0 1-1.716 2.023 15.98 15.98 0 0 1-4.438 3.139Zm-23.246-32.003a23.973 23.973 0 0 0-4.899 6.42 83.505 83.505 0 0 0-18.043-7.481 24.006 24.006 0 0 0 1.073-8.005 91.444 91.444 0 0 1 21.869 9.066Zm-61.636-10.876A92.58 92.58 0 0 1 128 36a92.58 92.58 0 0 1 15.781 1.348 16.094 16.094 0 0 1-.698 8.002A84.489 84.489 0 0 0 128 44c-5.149 0-10.19.463-15.083 1.35a16.094 16.094 0 0 1-.698-8.002Zm-8.205 1.81a91.446 91.446 0 0 0-21.869 9.066 23.992 23.992 0 0 1 4.9 6.42 83.49 83.49 0 0 1 18.042-7.481 24.006 24.006 0 0 1-1.073-8.005Zm-23.787 19.74a84.468 84.468 0 0 0-21.328 21.329 16.107 16.107 0 0 1-6.154-5.162 92.521 92.521 0 0 1 22.32-22.32 16.107 16.107 0 0 1 5.162 6.154ZM48.224 82.146a23.992 23.992 0 0 0 6.42 4.9 83.49 83.49 0 0 0-7.481 18.042 24.006 24.006 0 0 0-8.005-1.073 91.446 91.446 0 0 1 9.066-21.869Zm-10.876 61.636A92.58 92.58 0 0 1 36 128a92.58 92.58 0 0 1 1.348-15.781 16.094 16.094 0 0 1 8.002.698A84.489 84.489 0 0 0 44 128c0 5.149.463 10.19 1.35 15.083a16.094 16.094 0 0 1-8.002.698ZM216 152c.282 0 .563-.005.842-.014a91.443 91.443 0 0 1-9.066 21.869 23.98 23.98 0 0 0-6.419-4.899 83.509 83.509 0 0 0 7.48-18.043A24.005 24.005 0 0 0 216 152Zm-40.227 45.101a84.442 84.442 0 0 0 21.328-21.328 16.125 16.125 0 0 1 6.154 5.162 92.522 92.522 0 0 1-22.32 22.32 16.125 16.125 0 0 1-5.162-6.154Zm-6.817 4.256a83.509 83.509 0 0 1-18.043 7.48 24.005 24.005 0 0 1 1.073 8.005 91.443 91.443 0 0 0 21.869-9.066 23.98 23.98 0 0 1-4.899-6.419Zm-25.175 17.295A92.62 92.62 0 0 1 128 220a92.62 92.62 0 0 1-15.781-1.348 16.105 16.105 0 0 1 .698-8.003A84.415 84.415 0 0 0 128 212c5.149 0 10.19-.463 15.083-1.351a16.105 16.105 0 0 1 .698 8.003Zm-38.694-9.815a24.005 24.005 0 0 0-1.073 8.005 91.445 91.445 0 0 1-21.869-9.066 23.999 23.999 0 0 0 4.9-6.419 83.493 83.493 0 0 0 18.042 7.48Zm-46.188-33.064a84.457 84.457 0 0 0 21.328 21.328 15.98 15.98 0 0 1-3.139 4.438 16.092 16.092 0 0 1-2.023 1.716 92.522 92.522 0 0 1-22.32-22.32 16.14 16.14 0 0 1 6.154-5.162Zm-4.255-6.817a83.505 83.505 0 0 1-7.481-18.043 24.006 24.006 0 0 1-8.005 1.073 91.444 91.444 0 0 0 9.066 21.869 23.973 23.973 0 0 1 6.42-4.899Z" fill="#fff"/></svg>
